X: 38291
T: St. Patrice
R: jig
M: 6/8
K: Aminor
|:E2 E2 DE|FED CB,A,|B,CD EDC|B,DC B,C/B,/A,|
E2 E2 DE|FED CB,A,|B,CD EDC|B,DC B,C/B,/A,:|
|:c,A,B, ~A,3|c,A,B, ~A,3|c,A,B, c,d,c,|B,d,c, B,C/B,/A,|
c,A,B, ~A,3|c,A,B, ~A,3|c,A,B, c,d,c,|B,d,c, B,C/B,/A,:|

